svg/shopping-cart.svg

<svg width="24" height="24" viewBox="0 0 24 24" fill="none" xmlns="http://www.w3.org/2000/svg">
<path d="M4.1421 4L6.00913 16.1357C6.02271 16.2358 6.05113 16.3313 6.0921 16.4198C6.21543 16.6861 6.45246 16.8889 6.74088 16.9661C6.82899 16.9898 6.92133 17.0016 7.01578 17H18C18.4416 17 18.8309 16.7103 18.9578 16.2873L21.9578 6.28735C22.0487 5.98457 21.991 5.65668 21.8023 5.40307C21.6136 5.14946 21.3161 5 21 5H6.31948L5.99058 2.86219C5.97826 2.77281 5.95413 2.6872 5.91981 2.60698C5.85751 2.4609 5.76213 2.33437 5.64429 2.23519C5.53497 2.143 5.40561 2.07382 5.26367 2.03513C5.17434 2.01066 5.0806 1.99841 4.9847 2H3C2.44772 2 2 2.44772 2 3C2 3.55228 2.44772 4 3 4H4.1421ZM7.85794 15L6.62717 7H19.656L17.256 15H7.85794Z" fill="#0D0D0D"/>
<path d="M10 20C10 21.1046 9.10457 22 8 22C6.89543 22 6 21.1046 6 20C6 18.8954 6.89543 18 8 18C9.10457 18 10 18.8954 10 20Z" fill="#0D0D0D"/>
<path d="M19 20C19 21.1046 18.1046 22 17 22C15.8954 22 15 21.1046 15 20C15 18.8954 15.8954 18 17 18C18.1046 18 19 18.8954 19 20Z" fill="#0D0D0D"/>
</svg>

<svg width="24" height="24" fill="none" xmlns="http://www.w3.org/2000/svg"><path d="M4.142 4L6.01 16.136A1.002 1.002 0 007.016 17H18a1 1 0 00.958-.713l3-10A1 1 0 0021 5H6.32l-.33-2.138a.993.993 0 00-.346-.627.997.997 0 00-.66-.235H3a1 1 0 000 2h1.142zm3.716 11l-1.23-8h13.028l-2.4 8H7.858zM10 20a2 2 0 11-4 0 2 2 0 014 0zM19 20a2 2 0 11-4 0 2 2 0 014 0z" fill="#0D0D0D"/></svg>
